static/images/main3.svg

<svg height="77" viewBox="0 0 162 77" width="162" xmlns="http://www.w3.org/2000/svg" xmlns:xlink="http://www.w3.org/1999/xlink"><linearGradient id="a" x1="0%" x2="149.460671%" y1="0%" y2="71.875%"><stop offset="0" stop-color="#00eaf8"/><stop offset="1" stop-color="#6d42ef"/></linearGradient><path d="m131.018734 28.6589355c-2.510015-3.0289839-4.018734-6.9177696-4.018734-11.1589355 0-9.66498312 7.835017-17.5 17.5-17.5s17.5 7.83501688 17.5 17.5c0 9.6649831-7.835017 17.5-17.5 17.5-3.982361 0-7.654036-1.3302062-10.594941-3.5705355l-17.053606 17.053606c1.984387 2.8377824 3.148547 6.2914038 3.148547 10.0169295 0 9.6649831-7.835017 17.5-17.5 17.5-9.6649831 0-17.5-7.8350169-17.5-17.5 0-3.8556744 1.2469196-7.4201151 3.3595047-10.3120682l-16.906241-16.906241c-3.1281865 2.9266539-7.3314933 4.7183092-11.9532637 4.7183092-4.2380537 0-8.1242443-1.5065053-11.1522661-4.0132101l-16.9182694 16.9182694c2.2403293 2.9409052 3.5705355 6.6125798 3.5705355 10.5949407 0 9.6649831-7.8350169 17.5-17.5 17.5-9.66498312 0-17.5-7.8350169-17.5-17.5s7.83501688-17.5 17.5-17.5c4.2411659 0 8.1299516 1.5087186 11.1589355 4.0187341l16.9168738-16.9168739c-2.2435154-2.9420645-3.5758093-6.6163754-3.5758093-10.6018602 0-9.66498312 7.8350169-17.5 17.5-17.5s17.5 7.83501688 17.5 17.5c0 3.5981402-1.0859102 6.9426525-2.9478833 9.7236896l17.0213375 17.0213375c3.0658968-2.645354 7.0594095-4.2450271 11.4265458-4.2450271 4.496061 0 8.596113 1.6955172 11.695637 4.4820324zm-86.8220349 23.8159382 7.7781746-7.7781746c.7810486-.7810485 2.0473786-.7810485 2.8284272 0 .7810485.7810486.7810485 2.0473786 0 2.8284272l-7.7781746 7.7781746c-.7810486.7810485-2.0473786.7810485-2.8284272 0-.7810485-.7810486-.7810485-2.0473786 0-2.8284272zm62.9999999-22 7.778175-7.7781746c.781048-.7810485 2.047378-.7810485 2.828427 0 .781048.7810486.781048 2.0473786 0 2.8284272l-7.778175 7.7781746c-.781048.7810485-2.047378.7810485-2.828427 0-.781048-.7810486-.781048-2.0473786 0-2.8284272zm-89.696699 43.5251263c8.0081289 0 14.5-6.4918711 14.5-14.5s-6.4918711-14.5-14.5-14.5c-8.00812887 0-14.5 6.4918711-14.5 14.5s6.49187113 14.5 14.5 14.5zm42-41c8.0081289 0 14.5-6.4918711 14.5-14.5s-6.4918711-14.5-14.5-14.5-14.5 6.4918711-14.5 14.5 6.4918711 14.5 14.5 14.5zm43 40c8.008129 0 14.5-6.4918711 14.5-14.5s-6.491871-14.5-14.5-14.5c-8.0081289 0-14.5 6.4918711-14.5 14.5s6.4918711 14.5 14.5 14.5zm42-41c8.008129 0 14.5-6.4918711 14.5-14.5 0-8.00812887-6.491871-14.5-14.5-14.5s-14.5 6.49187113-14.5 14.5c0 8.0081289 6.491871 14.5 14.5 14.5z" fill="url(#a)" fill-rule="evenodd"/></svg>

<?xml version="1.0" encoding="UTF-8"?>
<svg width="162px" height="77px" viewBox="0 0 162 77" version="1.1" xmlns="http://www.w3.org/2000/svg" xmlns:xlink="http://www.w3.org/1999/xlink">
    <!-- Generator: Sketch 46.2 (44496) - http://www.bohemiancoding.com/sketch -->
    <title>Combined Shape</title>
    <desc>Created with Sketch.</desc>
    <defs>
        <linearGradient x1="0%" y1="0%" x2="149.460671%" y2="71.875%" id="linearGradient-1">
            <stop stop-color="#00EAF8" offset="0%"></stop>
            <stop stop-color="#6D42EF" offset="100%"></stop>
        </linearGradient>
    </defs>
    <g id="Page-1" stroke="none" stroke-width="1" fill="none" fill-rule="evenodd">
        <g id="Home-Page-10/04/2017-screen-Use-Rakam" transform="translate(-710.000000, -1104.000000)" fill="url(#linearGradient-1)">
            <g id="How-Rakam-Works" transform="translate(160.000000, 757.000000)">
                <g id="Combined-Shape" transform="translate(550.000000, 347.000000)">
                    <path d="M131.018734,28.6589355 C128.508719,25.6299516 127,21.7411659 127,17.5 C127,7.83501688 134.835017,0 144.5,0 C154.164983,0 162,7.83501688 162,17.5 C162,27.1649831 154.164983,35 144.5,35 C140.517639,35 136.845964,33.6697938 133.905059,31.4294645 L116.851453,48.4830705 C118.83584,51.3208529 120,54.7744743 120,58.5 C120,68.1649831 112.164983,76 102.5,76 C92.8350169,76 85,68.1649831 85,58.5 C85,54.6443256 86.2469196,51.0798849 88.3595047,48.1879318 L71.4532637,31.2816908 C68.3250772,34.2083447 64.1217704,36 59.5,36 C55.2619463,36 51.3757557,34.4934947 48.3477339,31.9867899 L31.4294645,48.9050593 C33.6697938,51.8459645 35,55.5176391 35,59.5 C35,69.1649831 27.1649831,77 17.5,77 C7.83501688,77 0,69.1649831 0,59.5 C0,49.8350169 7.83501688,42 17.5,42 C21.7411659,42 25.6299516,43.5087186 28.6589355,46.0187341 L45.5758093,29.1018602 C43.3322939,26.1597957 42,22.4854848 42,18.5 C42,8.83501688 49.8350169,1 59.5,1 C69.1649831,1 77,8.83501688 77,18.5 C77,22.0981402 75.9140898,25.4426525 74.0521167,28.2236896 L91.0734542,45.2450271 C94.139351,42.5996731 98.1328637,41 102.5,41 C106.996061,41 111.096113,42.6955172 114.195637,45.4820324 L131.018734,28.6589355 Z M44.1966991,52.4748737 L51.9748737,44.6966991 C52.7559223,43.9156506 54.0222523,43.9156506 54.8033009,44.6966991 L54.8033009,44.6966991 C55.5843494,45.4777477 55.5843494,46.7440777 54.8033009,47.5251263 L47.0251263,55.3033009 C46.2440777,56.0843494 44.9777477,56.0843494 44.1966991,55.3033009 C43.4156506,54.5222523 43.4156506,53.2559223 44.1966991,52.4748737 Z M107.196699,30.4748737 L114.974874,22.6966991 C115.755922,21.9156506 117.022252,21.9156506 117.803301,22.6966991 C118.584349,23.4777477 118.584349,24.7440777 117.803301,25.5251263 L110.025126,33.3033009 C109.244078,34.0843494 107.977748,34.0843494 107.196699,33.3033009 C106.415651,32.5222523 106.415651,31.2559223 107.196699,30.4748737 Z M17.5,74 C25.5081289,74 32,67.5081289 32,59.5 C32,51.4918711 25.5081289,45 17.5,45 C9.49187113,45 3,51.4918711 3,59.5 C3,67.5081289 9.49187113,74 17.5,74 Z M59.5,33 C67.5081289,33 74,26.5081289 74,18.5 C74,10.4918711 67.5081289,4 59.5,4 C51.4918711,4 45,10.4918711 45,18.5 C45,26.5081289 51.4918711,33 59.5,33 Z M102.5,73 C110.508129,73 117,66.5081289 117,58.5 C117,50.4918711 110.508129,44 102.5,44 C94.4918711,44 88,50.4918711 88,58.5 C88,66.5081289 94.4918711,73 102.5,73 Z M144.5,32 C152.508129,32 159,25.5081289 159,17.5 C159,9.49187113 152.508129,3 144.5,3 C136.491871,3 130,9.49187113 130,17.5 C130,25.5081289 136.491871,32 144.5,32 Z"></path>
                </g>
            </g>
        </g>
    </g>
</svg>
